X:70
T:Hardiman's Fancy (j)
B:NFID.182b
070hard_f
S:DOD
N:1:This tune is notated with cut time throughout. I
have indicated it in the first two measures.
N:2:De Danann recorded this as "Joe Derrane's"
L:1/8
M:6/8
R:jig
Q:320
K:D
z|B>dB B>AF|A>FE E>FE|DFA def|afe dBA|
BeG BAF|AFE EFE|DFA def|edB B2:|
d|efe edB|AFF dFF|def afa|bc'b afa|
bff afa|baf edB|def afd|edB B2:|

%%%

